apps/www/public/images/logos/publicity/fixed-width/pika.svg

<svg width="180" height="60" viewBox="0 0 180 60" fill="none" xmlns="http://www.w3.org/2000/svg">
<path d="M83.0264 20.4868H80.1154V23.5342H83.0264V20.4868ZM120.319 35.9934V28.7145C120.319 24.4596 117.656 22.5615 111.682 22.5615C106.662 22.5615 103.666 24.8185 103.666 28.5991H106.601C106.601 26.336 108.168 25.3283 111.682 25.3283C115.927 25.3283 117.433 26.2693 117.433 28.9224C116.395 29.0617 115.411 29.1853 114.449 29.305C107.235 30.207 102.881 30.7521 102.881 34.9267C102.881 36.5641 103.508 37.725 104.799 38.474C105.954 39.1445 108.012 39.5131 110.594 39.5131C114.071 39.5131 116.966 38.6679 117.796 37.4111C117.721 38.5543 117.796 39.2641 117.796 39.2701H120.443C120.439 39.2583 120.319 37.9563 120.319 35.9934ZM117.433 32.5658C117.433 34.3403 116.803 35.558 115.508 36.2856C114.351 36.9365 112.612 37.2405 110.038 37.2405C108.461 37.2405 105.816 36.9365 105.816 34.9032C105.816 33.911 106.506 33.3051 108.197 32.815C110.02 32.2854 113.083 31.8755 117.435 31.3892V32.5658H117.433ZM105.962 34.868H105.889V34.9365H105.962V34.868ZM70.0067 20.4868H59.5569V39.2701H62.4678V32.5875H70.0067C77.0485 32.5875 77.8097 28.356 77.8097 26.5381C77.8075 24.7185 77.0462 20.4868 70.0067 20.4868ZM69.481 29.7992H62.4678V23.2753H69.483C73.1288 23.2753 74.6835 24.2499 74.6835 26.5362C74.6816 28.8226 73.1266 29.7992 69.481 29.7992ZM102.503 22.6753H98.4717L88.4258 30.4658V20.4868H85.515V39.2701H88.4258V31.3402L98.5649 39.2701H102.787L91.9578 30.6971L102.503 22.6753ZM83.0264 24.8518H80.1154V39.2701H83.0264V24.8518Z" fill="#7E7E7E"/>
</svg>

<svg xmlns="http://www.w3.org/2000/svg" width="180" height="60" fill="none" viewBox="0 0 180 60"><path fill="#7e7e7e" d="M83.026 20.487h-2.91v3.047h2.91zm37.293 15.506v-7.279c0-4.254-2.663-6.152-8.637-6.152-5.02 0-8.016 2.256-8.016 6.037h2.935c0-2.263 1.567-3.27 5.081-3.27 4.245 0 5.751.94 5.751 3.593-1.038.14-2.022.263-2.984.383-7.214.902-11.568 1.447-11.568 5.622 0 1.637.627 2.798 1.918 3.547 1.155.67 3.213 1.04 5.795 1.04 3.477 0 6.372-.846 7.202-2.103-.075 1.143 0 1.853 0 1.86h2.647c-.004-.013-.124-1.315-.124-3.278m-2.886-3.427c0 1.774-.63 2.992-1.925 3.72-1.157.65-2.896.954-5.47.954-1.577 0-4.222-.303-4.222-2.337 0-.992.69-1.598 2.381-2.088 1.823-.53 4.886-.94 9.238-1.426v1.177zm-11.471 2.302h-.073v.069h.073zM70.007 20.487h-10.45V39.27h2.91v-6.683h7.54c7.041 0 7.803-4.231 7.803-6.049-.002-1.82-.764-6.051-7.803-6.051m-.526 9.312h-7.013v-6.524h7.015c3.646 0 5.2.975 5.2 3.261-.001 2.287-1.556 3.263-5.202 3.263m33.022-7.124h-4.031l-10.046 7.79v-9.978h-2.911V39.27h2.91v-7.93l10.14 7.93h4.222l-10.83-8.573zm-19.477 2.177h-2.91V39.27h2.91z"/></svg>
